categories/symbolic/preferences-desktop-accessibility-symbolic.svg

<?xml version="1.0" encoding="UTF-8" standalone="no"?>
<svg
   xmlns:dc="http://purl.org/dc/elements/1.1/"
   xmlns:cc="http://creativecommons.org/ns#"
   xmlns:rdf="http://www.w3.org/1999/02/22-rdf-syntax-ns#"
   xmlns:svg="http://www.w3.org/2000/svg"
   xmlns="http://www.w3.org/2000/svg"
   version="1.1"
   width="16"
   height="16"
   id="svg7384">
  <title
     id="title9167">elementary Symbolic Icon Theme</title>
  <defs
     id="defs11" />
  <metadata
     id="metadata90">
    <rdf:RDF>
      <cc:Work
         rdf:about="">
        <dc:format>image/svg+xml</dc:format>
        <dc:type
           rdf:resource="http://purl.org/dc/dcmitype/StillImage" />
        <dc:title>elementary Symbolic Icon Theme</dc:title>
      </cc:Work>
    </rdf:RDF>
  </metadata>
  <path
     d="M 8,0 C 3.581722,0 0,3.581722 0,8 c 0,4.418278 3.581722,8 8,8 4.418278,0 8,-3.581722 8,-8 C 16,3.581722 12.418278,0 8,0 z m 0,2 c 3.313708,0 6,2.686291 6,6 0,3.313708 -2.686292,6 -6,6 C 4.6862915,14 2,11.313708 2,8 2,4.686291 4.6862915,2 8,2 z"
     id="path2990"
     style="color:#bebebe;fill:#bebebe;fill-opacity:1;fill-rule:nonzero;stroke:none;stroke-width:1;marker:none;visibility:visible;display:inline;overflow:visible;enable-background:accumulate" />
  <path
     d="m 8.0625,2.5 c -0.713022,0 -1.28125,0.5547082 -1.28125,1.25 0,0.695291 0.568228,1.28125 1.28125,1.28125 0.713022,0 1.28125,-0.585959 1.28125,-1.28125 0,-0.6952918 -0.568228,-1.25 -1.28125,-1.25 z"
     id="path2986"
     style="color:#bebebe;fill:#bebebe;fill-opacity:1;fill-rule:nonzero;stroke:none;stroke-width:1;marker:none;visibility:visible;display:inline;overflow:visible;enable-background:accumulate" />
  <path
     d="M 3.40625,5.09375 C 3.33635,5.08515 3.2821301,5.09525 3.21875,5.125 3.09199,5.184567 3.0017477,5.303153 3,5.4375 2.9984,5.571866 3.0935658,5.687478 3.21875,5.75 L 6.65625,6.8125 6.625,9.28125 5.40625,12.9375 C 5.2893824,13.104044 5.324703,13.295219 5.5,13.40625 5.6753044,13.517298 5.94562,13.479058 6.0625,13.3125 L 8,9.375 9.9375,13.3125 c 0.103888,0.172743 0.318204,0.223706 0.5,0.125 0.181797,-0.09871 0.260134,-0.296006 0.15625,-0.46875 L 9.40625,9.28125 9.34375,7 l 3.5,-1.25 C 12.984644,5.65612 13.029775,5.465353 12.96875,5.3125 12.90772,5.15963 12.73347,5.075227 12.5625,5.09375 12.50276,5.10315 12.454633,5.12164 12.40625,5.15625 L 8,5.84375 3.625,5.15625 C 3.568278,5.11613 3.4761498,5.10234 3.40625,5.09375 z"
     id="path3010"
     style="color:#bebebe;fill:#bebebe;fill-opacity:1;fill-rule:nonzero;stroke:none;stroke-width:1;marker:none;visibility:visible;display:inline;overflow:visible;enable-background:accumulate" />
</svg>

<svg xmlns="http://www.w3.org/2000/svg" viewBox="0 0 16 16"><title>elementary Symbolic Icon Theme</title><path d="M8 0a8 8 0 1 0 0 16A8 8 0 0 0 8 0zm0 2a6 6 0 1 1 0 12A6 6 0 0 1 8 2z" color="#bebebe" fill="#bebebe" overflow="visible"/><path d="M8.063 2.5c-.714 0-1.282.555-1.282 1.25s.57 1.28 1.288 1.28c.714 0 1.282-.585 1.282-1.28 0-.695-.57-1.25-1.28-1.25zM3.406 5.094a.317.317 0 0 0-.187.03.36.36 0 0 0-.22.314c-.008.134.09.25.22.312l3.43 1.063-.03 2.468-1.22 3.66c-.118.17-.08.36.093.47.174.11.445.075.562-.092L8 9.378l1.938 3.94a.367.367 0 0 0 .5.12c.18-.098.26-.296.156-.468L9.406 9.28 9.344 7l3.5-1.25a.368.368 0 0 0 .125-.438c-.068-.152-.24-.237-.41-.218a.347.347 0 0 0-.16.062L8 5.844l-4.375-.688a.515.515 0 0 0-.22-.062z" color="#bebebe" fill="#bebebe" overflow="visible"/></svg>
